img/svg-icons/site.svg

<svg xmlns="http://www.w3.org/2000/svg" id="site" viewBox="0 0 56.3 56.3"><path d="M0 0v56.3h56.3V0H0zm54.3 54.3H2V2h52.3v52.3z"/><path d="M50.8 6.7H5.2v13h45.6v-13zm-2 11H7.2v-9h41.6v9zM34.8 22.8H5.2v28.7h29.6V22.8zm-2 26.7H7.2V24.8h25.6v24.7zM37.5 51.5h12.4V22.6H37.5v28.9zm2-26.9h8.4v24.9h-8.4V24.6z"/></svg>

<svg id="site" xmlns="http://www.w3.org/2000/svg" width="56.3" height="56.3" viewBox="0 0 56.3 56.3"><title>site</title><path d="M0,0V56.3H56.3V0H0ZM54.3,54.3H2V2H54.3V54.3Z" transform="translate(0 0)"  /><path d="M50.8,6.7H5.2v13H50.8V6.7h0Zm-2,11H7.2v-9H48.8v9h0Z" transform="translate(0 0)"  /><path d="M34.8,22.8H5.2V51.5H34.8V22.8h0Zm-2,26.7H7.2V24.8H32.8V49.5h0Z" transform="translate(0 0)"  /><path d="M37.5,51.5H49.9V22.6H37.5V51.5Zm2-26.9h8.4V49.5H39.5V24.6Z" transform="translate(0 0)"  /></svg>
